assets/icons/24px/stroke/chevron-left-24px.svg

<svg width="24" height="24" viewBox="0 0 24 24" fill="none" xmlns="http://www.w3.org/2000/svg">
<g clip-path="url(#clip0_878_21981)">
<g clip-path="url(#clip1_878_21981)">
<path fill-rule="evenodd" clip-rule="evenodd" d="M9.12345 12.6183C9.40652 12.9893 9.84888 13.4347 10.5355 14.1213L15.7071 19.2929C16.0976 19.6834 16.0976 20.3166 15.7071 20.7071C15.3166 21.0976 14.6834 21.0976 14.2929 20.7071L9.12132 15.5355C9.10575 15.52 9.09023 15.5044 9.07477 15.489C8.44789 14.8622 7.90777 14.3221 7.53341 13.8315C7.13221 13.3056 6.82843 12.7208 6.82843 12C6.82843 11.2792 7.13221 10.6944 7.53341 10.1685C7.90777 9.67789 8.4479 9.13781 9.07478 8.51101L14.2929 3.29289C14.6834 2.90237 15.3166 2.90237 15.7071 3.29289C16.0976 3.68342 16.0976 4.31658 15.7071 4.70711L10.5355 9.87868C9.84888 10.5653 9.40652 11.0107 9.12345 11.3817C8.85799 11.7296 8.82843 11.8923 8.82843 12C8.82843 12.1077 8.85799 12.2704 9.12345 12.6183Z" fill="white"/>
<path fill-rule="evenodd" clip-rule="evenodd" d="M9.12345 12.6183C9.40652 12.9893 9.84888 13.4347 10.5355 14.1213L15.7071 19.2929C16.0976 19.6834 16.0976 20.3166 15.7071 20.7071C15.3166 21.0976 14.6834 21.0976 14.2929 20.7071L9.12132 15.5355C9.10575 15.52 9.09023 15.5044 9.07477 15.489C8.44789 14.8622 7.90777 14.3221 7.53341 13.8315C7.13221 13.3056 6.82843 12.7208 6.82843 12C6.82843 11.2792 7.13221 10.6944 7.53341 10.1685C7.90777 9.67789 8.4479 9.13781 9.07478 8.51101L14.2929 3.29289C14.6834 2.90237 15.3166 2.90237 15.7071 3.29289C16.0976 3.68342 16.0976 4.31658 15.7071 4.70711L10.5355 9.87868C9.84888 10.5653 9.40652 11.0107 9.12345 11.3817C8.85799 11.7296 8.82843 11.8923 8.82843 12C8.82843 12.1077 8.85799 12.2704 9.12345 12.6183Z" fill="white"/>
</g>
</g>
<defs>
<clipPath id="clip0_878_21981">
<rect width="24" height="24" fill="white"/>
</clipPath>
<clipPath id="clip1_878_21981">
<rect width="24" height="24" fill="white" transform="translate(0 24) rotate(-90)"/>
</clipPath>
</defs>
</svg>

<svg width="24" height="24" fill="none" xmlns="http://www.w3.org/2000/svg"><g clip-path="url(#clip0_878_21981)"><g clip-path="url(#clip1_878_21981)" fill-rule="evenodd" clip-rule="evenodd" fill="#fff"><path d="M9.123 12.618c.284.371.726.817 1.413 1.503l5.171 5.172a1 1 0 0 1-1.414 1.414L9.12 15.536l-.046-.047c-.627-.627-1.167-1.167-1.542-1.658-.4-.525-.705-1.11-.705-1.831 0-.72.304-1.306.705-1.832.375-.49.915-1.03 1.542-1.657l5.218-5.218a1 1 0 1 1 1.414 1.414L10.536 9.88c-.687.686-1.13 1.132-1.413 1.503-.265.348-.295.51-.295.618 0 .108.03.27.295.618z"/><path d="M9.123 12.618c.284.371.726.817 1.413 1.503l5.171 5.172a1 1 0 0 1-1.414 1.414L9.12 15.536l-.046-.047c-.627-.627-1.167-1.167-1.542-1.658-.4-.525-.705-1.11-.705-1.831 0-.72.304-1.306.705-1.832.375-.49.915-1.03 1.542-1.657l5.218-5.218a1 1 0 1 1 1.414 1.414L10.536 9.88c-.687.686-1.13 1.132-1.413 1.503-.265.348-.295.51-.295.618 0 .108.03.27.295.618z"/></g></g><defs><clipPath id="clip0_878_21981"><path fill="#fff" d="M0 0H24V24H0z"/></clipPath><clipPath id="clip1_878_21981"><path fill="#fff" transform="rotate(-90 12 12)" d="M0 0H24V24H0z"/></clipPath></defs></svg>
